dist/img/search-btn320.svg

<svg width="50" height="30" viewBox="0 0 50 30" fill="none" xmlns="http://www.w3.org/2000/svg">
<rect width="50" height="30" rx="15" fill="#3670C7"/>
<path d="M27.9167 16.6667H27.2583L27.025 16.4417C27.8417 15.4917 28.3333 14.2583 28.3333 12.9167C28.3333 9.925 25.9083 7.5 22.9167 7.5C19.925 7.5 17.5 9.925 17.5 12.9167C17.5 15.9083 19.925 18.3333 22.9167 18.3333C24.2583 18.3333 25.4917 17.8417 26.4417 17.025L26.6667 17.2583V17.9167L30.8333 22.075L32.075 20.8333L27.9167 16.6667ZM22.9167 16.6667C20.8417 16.6667 19.1667 14.9917 19.1667 12.9167C19.1667 10.8417 20.8417 9.16667 22.9167 9.16667C24.9917 9.16667 26.6667 10.8417 26.6667 12.9167C26.6667 14.9917 24.9917 16.6667 22.9167 16.6667Z" fill="white"/>
</svg>

<svg width="50" height="30" fill="none" xmlns="http://www.w3.org/2000/svg"><rect width="50" height="30" rx="15" fill="#3670C7"/><path d="M27.917 16.667h-.659l-.233-.225a5.393 5.393 0 0 0 1.308-3.525 5.417 5.417 0 1 0-5.416 5.416 5.393 5.393 0 0 0 3.525-1.308l.225.233v.659l4.166 4.158 1.242-1.242-4.158-4.166Zm-5 0a3.745 3.745 0 0 1-3.75-3.75 3.745 3.745 0 0 1 3.75-3.75 3.745 3.745 0 0 1 3.75 3.75 3.745 3.745 0 0 1-3.75 3.75Z" fill="#fff"/></svg>
